dist/img/icon-address.svg

<svg width="16" height="16" viewBox="0 0 16 16" fill="none"
    xmlns="http://www.w3.org/2000/svg">
    <path d="M8.07028 1C5.27451 1 3 3.27451 3 6.07025C3 9.53985 7.5374 14.6334 7.73058 14.8486C7.91204 15.0507 8.22884 15.0503 8.40997 14.8486C8.60315 14.6334 13.1406 9.53985 13.1406 6.07025C13.1405 3.27451 10.866 1 8.07028 1ZM8.07028 8.62123C6.66366 8.62123 5.51932 7.47687 5.51932 6.07025C5.51932 4.66363 6.66368 3.51929 8.07028 3.51929C9.47687 3.51929 10.6212 4.66366 10.6212 6.07028C10.6212 7.47689 9.47687 8.62123 8.07028 8.62123Z" fill="#555555"/>
</svg>

<svg width="16" height="16" fill="none" xmlns="http://www.w3.org/2000/svg"><path d="M8.07 1A5.076 5.076 0 003 6.07c0 3.47 4.537 8.563 4.73 8.779a.457.457 0 00.68 0c.193-.216 4.73-5.31 4.73-8.779A5.076 5.076 0 008.07 1zm0 7.621a2.554 2.554 0 01-2.55-2.55 2.554 2.554 0 012.55-2.552 2.554 2.554 0 012.551 2.551 2.554 2.554 0 01-2.55 2.551z" fill="#555"/></svg>
